X: 59
T:Sugar in the Gourd
% Nottingham Music Database
S:Lynn Rohrbough, via EF
M:4/4
L:1/4
K:A
P:A
"A"c/2B/2A/2G/2 EC|"A"E/2F/2A "E7"B2|"A"c/2B/2A/2G/2 EC|"D"E/2F/2A "A"A2:|
P:B
"A"ce/2f/2 ec|"A"B/2c/2e "A7"e2|"D"ff/2g/2 fe|"E7"B/2c/2e e2|
"D"ab/2a/2 "A"f/2e/2c|"A"e/2f/2e "E7"c2|"F#m"AB/2c/2 "Bm"B/2A/2F|\
"E7"E/2F/2A "A"A2:|<end>
<start>
